!!!id: EG069
!!!page: 130-135
!!!COM: Anonymous
!!!LYR: Anonymous
!!!PTL@@FR: Chansons Populaires du Canada
!!!OTL@@FR: Le Juif-Errant
!!!PUB: G. E. Desbarats
!!!YEM:
!!!PDT: 1865
!!!SMA:
!!!OMD:
!!!AGN-Laforte:
!!!AGN-type:
!!!AGN-rime:
**kern
*clefG2
*k[f#]
*G:
*M6/8
*
*
8g
=1
4a
8b
8ccL
8bJ
8a
=2
4.g
8f#
8r
8g
=3
4a
8b
8ccL
8bJ
8a
!!LO:PB:g=original
=4
4.g
8r
8g
=5
4g
8dd
4dd
8dd
=6
4.ee
4cc
8dd
=7
4ee
8dd
4cc
8b
!!LO:PB:g=original
=8
4a
8cc
4b
!LO:TX:a:t=2
.
4dd
=9
4.g
4.a
=10
4g
8a
4b
!LO:TX:a:t=2
.
4dd
=11
8ddq
4.cc
4.a
!!LO:PB:g=original
=12
4g
8r
8r
==13
8r
==||
*
*
==|
!!!RNB: Eighth rests in m.4 and m.12b2 (final rest in m.12) flipped backward in original
!!!RWG: Two-note tuplets in mm.8 & 10 presumed encoded incorrectly
*-
